X:26
T:De post
C:Tielman Susato
B:Tielman Susato: "Danserye" (1551) no. 26
R:Branle, bransle
Z:Transcribed by Frank Nordberg - http://www.musicaviva.com
F:http://abc.musicaviva.com/tunes/susato-tielman/susato-1551-26/susato-1551-26-4m.abc
M:4/2
L:1/2
K:C
V:1
AAGE|FDEE|AAGE|F2E2::DCDE|FDE2|DCDE|F2E2:|
V:2
CCCC|A,B,CC|CCCC|A,>B,^C2::A,A,A,B,/C/|DA,C2|A,A,A,B,/C/|DA,C2:|
V:3
F,F,G,A,|F,G,E,E,|F,F,G,A,|F,>G,A,2::F,E,F,G,|A,F,G,2|F,E,F,G,|A,F,G,2:|
V:4
F,,F,,C,C,|D,G,,C,C,|F,,F,,C,C,|D,2A,,2::D,A,,D,/F,/E,|D,D,C,2|D,A,,D,/F,/E,|D,D,C,2:|
W:
W:
W:  From Musica Viva - http://www.musicaviva.com
W:  the Internet center for free sheet music downloads.
